localPackages/DesignSystem/Sources/DesignSystem/Resources/Assets.xcassets/IconSet/ic-trash-cross-filled.imageset/ic-trash-cross-filled.svg

<svg width="24" height="24" viewBox="0 0 24 24" fill="none" xmlns="http://www.w3.org/2000/svg">
<g id="ic-trash-cross-filled">
<path id="Icon" fill-rule="evenodd" clip-rule="evenodd" d="M9.07918 1.91459C9.20622 1.6605 9.46592 1.5 9.75 1.5H14.25C14.5341 1.5 14.7938 1.6605 14.9208 1.91459L16.2135 4.5H21C21.4142 4.5 21.75 4.83579 21.75 5.25C21.75 5.66421 21.4142 6 21 6H19.4348L18.1191 21.1299C18.0517 21.9051 17.4028 22.5 16.6248 22.5H7.37523C6.59716 22.5 5.94827 21.9051 5.88086 21.1299L4.56522 6H3C2.58579 6 2.25 5.66421 2.25 5.25C2.25 4.83579 2.58579 4.5 3 4.5H7.78647L9.07918 1.91459ZM13.7865 3L14.5365 4.5H9.46353L10.2135 3H13.7865ZM8.46967 9.96967C8.76256 9.67678 9.23744 9.67678 9.53033 9.96967L12 12.4393L14.4697 9.96967C14.7626 9.67678 15.2374 9.67678 15.5303 9.96967C15.8232 10.2626 15.8232 10.7374 15.5303 11.0303L13.0607 13.5L15.5303 15.9697C15.8232 16.2626 15.8232 16.7374 15.5303 17.0303C15.2374 17.3232 14.7626 17.3232 14.4697 17.0303L12 14.5607L9.53033 17.0303C9.23744 17.3232 8.76256 17.3232 8.46967 17.0303C8.17678 16.7374 8.17678 16.2626 8.46967 15.9697L10.9393 13.5L8.46967 11.0303C8.17678 10.7374 8.17678 10.2626 8.46967 9.96967Z" fill="#0F0F0F"/>
</g>
</svg>

<svg xmlns="http://www.w3.org/2000/svg" width="24" height="24" viewBox="0 0 24 24">
  <g class="ic-trash-cross-filled">
    <path fill-rule="evenodd" d="M9.08 1.915a.75.75 0 0 1 .67-.415h4.5a.75.75 0 0 1 .67.415L16.214 4.5H21A.75.75 0 0 1 21 6h-1.565l-1.316 15.13a1.5 1.5 0 0 1-1.494 1.37h-9.25a1.5 1.5 0 0 1-1.494-1.37L4.565 6H3a.75.75 0 0 1 0-1.5h4.786L9.08 1.915ZM13.786 3l.75 1.5H9.463l.75-1.5h3.572ZM8.47 9.97a.75.75 0 0 1 1.06 0L12 12.44l2.47-2.47a.75.75 0 1 1 1.06 1.06l-2.47 2.47 2.47 2.47a.75.75 0 1 1-1.06 1.06L12 14.56l-2.47 2.47a.75.75 0 0 1-1.06-1.06l2.47-2.47-2.47-2.47a.75.75 0 0 1 0-1.06Z" class="Icon"/>
  </g>
</svg>
